src/icons/DiscountShapeIcon.svg

<svg id="icon" width="24" height="24" viewBox="0 0 24 24" fill="none" xmlns="http://www.w3.org/2000/svg">
<path d="M14.6599 20.01L13.1399 21.53C12.5199 22.15 11.4999 22.15 10.8799 21.53L9.3599 20.01C9.0999 19.75 8.58992 19.54 8.22992 19.54H6.0799C5.1999 19.54 4.47992 18.8199 4.47992 17.9399V15.79C4.47992 15.43 4.26992 14.92 4.00992 14.66L2.4899 13.14C1.8699 12.52 1.8699 11.5 2.4899 10.88L4.00992 9.35999C4.26992 9.09999 4.47992 8.58998 4.47992 8.22998V6.07996C4.47992 5.19996 5.1999 4.47998 6.0799 4.47998" stroke="#1C1C1C" stroke-width="2" stroke-linecap="round" stroke-linejoin="round"/>
<path d="M9.33984 3.9899L10.8598 2.46988C11.4798 1.84988 12.4998 1.84988 13.1198 2.46988L14.6399 3.9899C14.8999 4.2499 15.4098 4.45987 15.7698 4.45987H17.9199C18.7999 4.45987 19.5198 5.17997 19.5198 6.05997V8.20987C19.5198 8.56987 19.7298 9.07988 19.9898 9.33988L21.5099 10.8599C22.1299 11.4799 22.1299 12.4999 21.5099 13.1199L19.9898 14.6399C19.7298 14.8999 19.5198 15.4099 19.5198 15.7699V17.92C19.5198 18.8 18.7999 19.5199 17.9199 19.5199" stroke="#1C1C1C" stroke-width="2" stroke-linecap="round" stroke-linejoin="round"/>
<path d="M9 15L15 9" stroke="#42AB44" stroke-width="2" stroke-linecap="round" stroke-linejoin="round"/>
<path d="M14.4945 14.5H14.5035" stroke="#42AB44" stroke-width="2" stroke-linecap="round" stroke-linejoin="round"/>
<path d="M9.49451 9.5H9.50349" stroke="#42AB44" stroke-width="2" stroke-linecap="round" stroke-linejoin="round"/>
</svg>

<svg id="icon" width="24" height="24" fill="none" xmlns="http://www.w3.org/2000/svg"><path d="m14.66 20.01-1.52 1.52c-.62.62-1.64.62-2.26 0l-1.52-1.52c-.26-.26-.77-.47-1.13-.47H6.08c-.88 0-1.6-.72-1.6-1.6v-2.15c0-.36-.21-.87-.47-1.13l-1.52-1.52c-.62-.62-.62-1.64 0-2.26l1.52-1.52c.26-.26.47-.77.47-1.13V6.08c0-.88.72-1.6 1.6-1.6M9.34 3.99l1.52-1.52c.62-.62 1.64-.62 2.26 0l1.52 1.52c.26.26.77.47 1.13.47h2.15c.88 0 1.6.72 1.6 1.6v2.15c0 .36.21.87.47 1.13l1.52 1.52c.62.62.62 1.64 0 2.26l-1.52 1.52c-.26.26-.47.77-.47 1.13v2.15c0 .88-.72 1.6-1.6 1.6" stroke="#1C1C1C" stroke-width="2" stroke-linecap="round" stroke-linejoin="round"/><path d="m9 15 6-6M14.495 14.5h.009M9.495 9.5h.008" stroke="#42AB44" stroke-width="2" stroke-linecap="round" stroke-linejoin="round"/></svg>
